X: 92
T:German Polka. BF13.091
M:2/4
L:1/16
Q:100
C:In hand "B"
S:BF12,MS,c1850,Lakes,Browne Coll.
R:Polka
O:England
A:Lakes
N:Grace notes shown as semi-quaver
Z:vmp.Cherri Graebe.
K:C major
A2c2 c2c2|{d}cBcd e2c2|g2d2 d2d2|dedc BABG|!
G2c2 c2c2|{d}cBcd e2c2|g2d2 d2d2|d^cde =c4:|!
|:g2f2 f2f2|{g}fefga4|g2e2 e2e2|{f}edefg4|!
f2d2 d2d2|{e}d^cde f2B2|cBce agfe|d"NB"^cde=c4:|]
W: =c in ms. CGP ||
